dist/images/ignore/icon-trash.svg

<svg width="13" height="14" viewBox="0 0 13 14" xmlns="http://www.w3.org/2000/svg" xmlns:sketch="http://www.bohemiancoding.com/sketch/ns"><path d="M4 6h2v5h-2v-5zm3 0h2v5h-2v-5zm5-3h-2v-2c0-.552-.447-1-1-1h-5c-.553 0-1 .448-1 1v2h-2c-.553 0-1 .448-1 1v1h1v8c0 .553.447 1 1 1h9c.553 0 1-.447 1-1v-8h1v-1c0-.552-.447-1-1-1zm-7-1h3v1h-3v-1zm5 10h-7v-7h7v7z" sketch:type="MSShapeGroup" fill="#8596A5"/></svg>

<svg width="13" height="14" viewBox="0 0 13 14" xmlns="http://www.w3.org/2000/svg"><path d="M4 6h2v5H4V6zm3 0h2v5H7V6zm5-3h-2V1c0-.552-.447-1-1-1H4c-.553 0-1 .448-1 1v2H1c-.553 0-1 .448-1 1v1h1v8c0 .553.447 1 1 1h9c.553 0 1-.447 1-1V5h1V4c0-.552-.447-1-1-1zM5 2h3v1H5V2zm5 10H3V5h7v7z" fill="#8596A5"/></svg>
